X:1
T:James Gibb editions
T:So ell encina - Anon.
%%score [ 1 2 3 4 ]
L:1/8
Q:1/4=100
M:3/4
K:F
V:1 treble nm="Soprano"
V:2 treble nm="Alto"
V:3 treble-8 nm="Tenor"
V:4 bass nm="Bass"
V:1
"^Anonymous\n(C16th)""^So ell encina" F4 G2 | A3 G (FE) | D2 C4 | D3 E F2 | E2 F4 | A4 B2 | c4 A2 | %7
w: So~~ell en-|ci- na, en\- *|ci- na,|so ell en-|ci- na,|yo me|iba mi|
 B2 A4 | A4 B2 | c4 A2 | B2 A4 | A4 B2 | c4 A2 | B2 A4 | F4 G2 | (A3 G) (FE) | D2 C4 | D3 E F2 | %18
w: ma- dre|a la|ro- me-|rí- a|por ir|más de-|vo- ta|fui sin|com\- * pa\- *|ñí- a.|So ell en-|
 E2 F4 |] %19
w: ci- na.|
V:2
 D4 D2 | F3 E (DC) | D2 G,4 | B,4 B,2 | C2 C4 | F4 G2 | G4 F2 | F2 F4 | F4 G2 | G4 F2 | F2 F4 | %11
w: So~~ell en-|ci- na, en\- *|ci- na,|so en-|ci- na,|yo me|iba mi|ma- dre|a la|ro- me-|rí- a|
 F4 G2 | G4 F2 | F2 F4 | D4 D2 | (F3 E) (DC) | D2 G,4 | B,4 B,2 | C2 C4 |] %19
w: por ir|más de-|vo- ta|fui sin|com\- * pa\- *|ñí- a.|So en-|ci- na.|
V:3
 A4 B2 | c4 A2 | B2 c4 | F4 F2 | G2 F4 | c4 d2 | e4 c2 | d2 c4 | c4 d2 | e4 c2 | d2 c4 | c4 d2 | %12
w: So~~ell en-|ci- na,~~en-|ci- na,|so en-|ci- na,|yo me|iba mi|ma- dre|a la|ro- me-|rí- a|por ir|
 e4 c2 | d2 c4 | A4 B2 | c4 A2 | B2 c4 | F4 F2 | G2 F4 |] %19
w: más de-|vo- ta|fui sin|com- pa-|ñí- a.|So en-|ci- na.|
V:4
 D,4 G,2 | F,4 F,2 | G,2 C,4 | B,,3 C, D,2 | C,2 F,,4 | (F,2 A,2) G,2 | C,4 F,2 | B,,2 F,4 | %8
w: So~~ell en-|ci- na,~~en-|ci- na,|so ell en|ci- na,|yo * me|iba mi|ma- dre|
 (F,2 A,2) G,2 | C,4 F,2 | B,,2 F,4 | (F,2 A,2) G,2 | C,4 F,2 | B,,2 F,4 | D,4 G,2 | F,4 F,2 | %16
w: a * la|ro- me-|rí- a|por * ir|más de-|vo- ta|fui sin|com- pa-|
 G,2 C,4 | B,,3 C, D,2 | C,2 F,,4 |] %19
w: ñí- a.|So ell en-|ci- na.|

